svgs/thin/bath.svg

<svg xmlns="http://www.w3.org/2000/svg" viewBox="0 0 512 512"><!--! Font Awesome Pro 6.0.0-alpha3 by @fontawesome - https://fontawesome.com License - https://fontawesome.com/license (Commercial License) --><path d="M504 272H48V53.25C48 32.7 64.72 16 85.25 16c9.812 0 19.44 3.969 26.34 10.91l32.4 32.4C133.8 72.01 128 87.48 128 104c0 19.23 7.5 37.31 21.09 50.91l18.34 18.34L162.3 178.3c-3.125 3.125-3.125 8.188 0 11.31C163.9 191.2 165.9 192 168 192s4.094-.7813 5.656-2.344l112-112c3.125-3.125 3.125-8.188 0-11.31s-8.188-3.125-11.31 0l-5.094 5.094L250.9 53.09C224.8 26.97 183.6 25.49 155.3 48.01L122.9 15.59C113 5.688 99.28 0 85.25 0C55.88 0 32 23.89 32 53.25V272H8C3.594 272 0 275.6 0 280S3.594 288 8 288h496C508.4 288 512 284.5 512 280S508.4 272 504 272zM160.4 64.41c21.81-21.84 57.38-21.84 79.19 0l18.34 18.34L178.8 161.9L160.4 143.6C149.8 133 144 118.1 144 104S149.8 74.98 160.4 64.41zM472 320c-4.406 0-8 3.578-8 8v48c0 48.53-39.47 88-88 88h-240c-48.53 0-88-39.47-88-88v-48C48 323.6 44.41 320 40 320S32 323.6 32 328v48c0 36.78 19.32 68.98 48.22 87.48C80.2 463.7 80 463.8 80 464v40C80 508.4 83.59 512 88 512S96 508.4 96 504v-32.05C108.3 477.1 121.8 480 136 480h240c14.17 0 27.68-2.891 40-8.049V504c0 4.422 3.594 8 8 8s8-3.578 8-8V464c0-.2051-.2012-.3223-.2168-.5234C460.7 444.1 480 412.8 480 376v-48C480 323.6 476.4 320 472 320z"/></svg>

<svg xmlns="http://www.w3.org/2000/svg" viewBox="0 0 512 512"><!-- Font Awesome Pro 6.0.0-alpha2 by @fontawesome - https://fontawesome.com License - https://fontawesome.com/license (Commercial License) --><path d="M504 272H48V53.25C48 32.703 64.719 16 85.25 16C95.062 16 104.688 19.969 111.594 26.906L143.99 59.303C133.818 72.01 128 87.482 128 104C128 123.234 135.5 141.312 149.094 154.906L167.438 173.25L162.344 178.344C159.219 181.469 159.219 186.531 162.344 189.656C163.906 191.219 165.938 192 168 192S172.094 191.219 173.656 189.656L285.656 77.656C288.781 74.531 288.781 69.469 285.656 66.344S277.469 63.219 274.344 66.344L269.25 71.438L250.906 53.094C224.781 26.969 183.555 25.49 155.322 48.01L122.906 15.594C113.031 5.688 99.281 0 85.25 0C55.875 0 32 23.891 32 53.25V272H8C3.594 272 0 275.578 0 280S3.594 288 8 288H504C508.406 288 512 284.422 512 280S508.406 272 504 272ZM160.406 64.406C182.219 42.562 217.781 42.562 239.594 64.406L257.938 82.75L178.75 161.938L160.406 143.594C149.812 133.016 144 118.953 144 104S149.812 74.984 160.406 64.406ZM472 320C467.594 320 464 323.578 464 328V376C464 424.531 424.531 464 376 464H136C87.469 464 48 424.531 48 376V328C48 323.578 44.406 320 40 320S32 323.578 32 328V376C32 412.783 51.316 444.98 80.217 463.477C80.201 463.678 80 463.795 80 464V504C80 508.422 83.594 512 88 512S96 508.422 96 504V471.951C108.324 477.109 121.826 480 136 480H376C390.174 480 403.676 477.109 416 471.951V504C416 508.422 419.594 512 424 512S432 508.422 432 504V464C432 463.795 431.799 463.678 431.783 463.477C460.684 444.98 480 412.783 480 376V328C480 323.578 476.406 320 472 320Z"/></svg>
